src/img/system/black-star.svg

<svg width="120" height="120" viewBox="0 0 120 120" fill="none" xmlns="http://www.w3.org/2000/svg">
<path d="M60 0L65.4345 25.6877L78.541 2.93661L75.7716 29.0464L95.2671 11.459L84.5649 35.4351L108.541 24.7329L90.9536 44.2284L117.063 41.459L94.3123 54.5655L120 60L94.3123 65.4345L117.063 78.541L90.9536 75.7716L108.541 95.2671L84.5649 84.5649L95.2671 108.541L75.7716 90.9536L78.541 117.063L65.4345 94.3123L60 120L54.5655 94.3123L41.459 117.063L44.2284 90.9536L24.7329 108.541L35.4351 84.5649L11.459 95.2671L29.0464 75.7716L2.93661 78.541L25.6877 65.4345L0 60L25.6877 54.5655L2.93661 41.459L29.0464 44.2284L11.459 24.7329L35.4351 35.4351L24.7329 11.459L44.2284 29.0464L41.459 2.93661L54.5655 25.6877L60 0Z" fill="#222222"/>
</svg>

<svg xmlns="http://www.w3.org/2000/svg" width="120" height="120" fill="none" xmlns:v="https://vecta.io/nano"><path d="M60 0l5.435 25.688L78.541 2.937l-2.769 26.11 19.495-17.587-10.702 23.976 23.976-10.702-17.587 19.496 26.109-2.769-22.751 13.106L120 60l-25.688 5.435 22.751 13.106-26.109-2.769 17.587 19.495-23.976-10.702 10.702 23.976-19.495-17.587 2.769 26.109-13.106-22.751L60 120l-5.434-25.688-13.106 22.751 2.769-26.109-19.495 17.587 10.702-23.976-23.976 10.702 17.587-19.495-26.11 2.769 22.751-13.106L0 60l25.688-5.434L2.937 41.459l26.11 2.769-17.587-19.495 23.976 10.702-10.702-23.976 19.496 17.587-2.769-26.11 13.106 22.751L60 0z" fill="#222"/></svg>
